X: 1018
T: West Fork Gals
C:Traditional
B: jims roots
M:4/4
L:1/4
Q: 1/4=100
K:D
V:1 
d/e/|:"D"f/g/f/e/de/f/|"G"ggB2|"A"e/f/e/d/cA|"A"d/B/A/G/"D"FD|
"D"ff/e/de/f/|"G"g/a/g/e/B2|"A7"e/f/e/d/cA|B/A/B/c/"D"d2:|
|:"D"A/B/A/G/FA|ddF3/A/|"A7"G/F/G/F/ E3/A/| G/A/G/F/E2|
e/f/e/d/ c/A/A/c/ |"D"dAF/G/A | "D"d/c/d/f/ "A7"e/f/g/e/ |"D"fddz:|
% abcbook-tune_id 6298c297bdf2154e2925415a


% abcbook-boost 0
% abcbook-tablature 
% abcbook-transpose 
% abcbook-lastupdated 1654178456797
% abcbook-soundfonts 
% abcbook-repeats 1


